X:154
T:Meillionen o Feirionydd - The Clover of Merioneth
M:4/4
L:1/8
Q:100
C:Trad. arr. J.T.
R:Processional
N:Aeolian mode arrangement
K:G
E2 GF/E/ D/E/F/G/ A2 | G2 A/G/F/E/ D>E F/G/A/F/ | E2 GF/E/ D
/E/F/G/ AB/A/ |1 GA/G/ F/E/D E4 :||2 GA/G/ F/E/D E3
||: G/A/ | BE DE F3 G/A/ | B2 A/G/F/E/ D/E/F/G/ A/F/
E
/D/ | E>F GA B/A/G/F/ G2 | A>B cB A/B/A/G/ F2 | G2 A/G/F/E/
D/E/F/G/ AB/A/ |1 GA/G/ F/E/D E3 :||2 GA/G/ F/E/D E4 ||
